!!!OTL: An cuimhin leat an oíche úd?, S. 56
!!!id: I0539
**kern
*clefG2
*k[f#c#g#]
*A:
{8e
8f#
8g#
16a
=1
4a
4a
8b
8a
=2
4g#
4a
16a
8b
8cc#
8dd
16a
=3
4ee
8dd
8b
8a
8b
=4
4g#
4e
=5
16aaaa
16aaaa}
{8e
8f#
8g#
16a
=6
4a
4a
8b
8a
=7
4g#
4a
16a
8b
8cc#
8dd
16a
=8
4ee
8.dd
16b
8.a
16b
=9
4a
4a
=10
16bbbb
16aaaa}
{8b
8cc#
8dd
16a
=11
4ee
4ee
4ee
=12
4dd
4dd
8ee
8dd
=13
4cc#
4b
8a
8a
=14
4g#
4e}
=15
{16a
8e
8f#
8g#
16a
=16
4a
4a
8b
8a
=17
4g#
4a
8b
8cc#
=18
4ee
8.dd
16b
8.a
16b
=19
4a
4a}
==
*-
!!!minrhy: 16
!!!meters: 3/4 ]  ZZ[4
!!!cut: An cuimhin leat an oíche úd?, S. 56
!!!reg: Irland
!!!trd: O'SULLIVAN, Donal: Song of the Irish
!!!rhy1: (X_X_X_)  X__X__X_X_  X__X__(X_X_X_)  X__X_X_X_X_  X__X__
!!!rhy2: (X_X_X_)  X__X__X_X_  X__X__(X_X_X_)  X__X_.XX_.X  X__X__
!!!key: I0539  16  A 3/4 ]  ZZ[4
!!!mod: HEPTATONIK IONISCH]  AMBITUS[8
!!!kad: -51-51
!!!akz: 1-75-7_1-751_543-7_1-751_
!!!fot: 'a__aw_b__aw_
!!!for: 'a__b__c__d__
!!!fok: '^__^a_^d_^a_
!! PHRAS[AUFTAKTIG]
!!!fkt: Liebeslied
!! IRISCHE V
!! PR[22] 2K[8] 2G[18] 3K[2] 3G[2] 4A[2] 4Ü[0] 5A[2] 6K[2] 6G[0]
!! 7K[0] 7G[0] 8A[0] MEHR[0] SI[35] ABS[51] SR[25] SP[10]
!! ST[10] 2k[12] 2g[22] 3k[2] 3g[4] 4d[4] 4ü[0] 5d[0] 6k[0] 6g[0]
!! 7k[0] 7g[0] 8d[0] mehr[0] si[43] dm[-8] sr[33] sp[10]
!! 1F[0] 2F[75] 3F[19] 4F[0] LF[0] 2P[0] 3P[0] 4P[0] TRI[0] DF[3] AB[52]
!! TF[0] U3K[0] U3[0] U4[0] U4Ü[0] U5[0] U6K[0] U6[0] U7K[0] U7[0]
!! N1[19] N2K[0] N2[13] N3K[0] N3[13] N4[8] N4Ü[0] N5[17] N6K[0] N6[6]
!!!n7k: 2] N7[6] O1[15] O2K[0] O2[0] O3K[0] O3[0] HÖ[0
